lib/healthicons/icons/solid/vehicles/mobile_clinic.svg

<svg fill="none" height="48" viewBox="0 0 48 48" width="48" xmlns="http://www.w3.org/2000/svg"><path clip-rule="evenodd" d="m7 10c-1.65685 0-3 1.3431-3 3v22h3.12602c.44404 1.7252 2.01014 3 3.87398 3 1.8638 0 3.4299-1.2748 3.874-3h1.252c.4441 1.7252 2.0102 3 3.874 3s3.4299-1.2748 3.874-3h9.252c.4441 1.7252 2.0102 3 3.874 3s3.4299-1.2748 3.874-3h3.126v-8.1243c0-.8373-.3499-1.6365-.9652-2.2044l-5.2819-4.8757c-.5542-.5115-1.2807-.7956-2.0349-.7956h-3.718v-6c0-1.6569-1.3431-3-3-3zm33.874 23h1.126v-5h-10v5h1.126c.4441-1.7252 2.0102-3 3.874-3s3.4299 1.2748 3.874 3zm-8.874-7h9.5257l-5.1294-4.7348c-.1847-.1705-.4269-.2652-.6783-.2652h-3.718zm-26 7v-5h24v5h-6.126c-.4441-1.7252-2.0102-3-3.874-3s-3.4299 1.2748-3.874 3h-1.252c-.4441-1.7252-2.0102-3-3.874-3-1.86384 0-3.42994 1.2748-3.87398 3zm3 1c0 1.1046.89543 2 2 2 1.1046 0 2-.8954 2-2s-.8954-2-2-2c-1.10457 0-2 .8954-2 2zm11 2c1.1046 0 2-.8954 2-2s-.8954-2-2-2-2 .8954-2 2 .8954 2 2 2zm19-2c0 1.1046-.8954 2-2 2s-2-.8954-2-2 .8954-2 2-2 2 .8954 2 2zm-20-19v3h3v2h-3v3h-2v-3h-3v-2h3v-3z" fill="#333" fill-rule="evenodd"/></svg>

<svg width="48" height="48" viewBox="0 0 48 48" fill="none" xmlns="http://www.w3.org/2000/svg">
<path fill-rule="evenodd" clip-rule="evenodd" d="M7 10C5.34315 10 4 11.3431 4 13V35H7.12602C7.57006 36.7252 9.13616 38 11 38C12.8638 38 14.4299 36.7252 14.874 35H16.126C16.5701 36.7252 18.1362 38 20 38C21.8638 38 23.4299 36.7252 23.874 35H33.126C33.5701 36.7252 35.1362 38 37 38C38.8638 38 40.4299 36.7252 40.874 35H44V26.8757C44 26.0384 43.6501 25.2392 43.0348 24.6713L37.7529 19.7956C37.1987 19.2841 36.4722 19 35.718 19H32V13C32 11.3431 30.6569 10 29 10H7ZM40.874 33H42V28H32V33H33.126C33.5701 31.2748 35.1362 30 37 30C38.8638 30 40.4299 31.2748 40.874 33ZM32 26H41.5257L36.3963 21.2652C36.2116 21.0947 35.9694 21 35.718 21H32V26ZM6 33V28H30V33H23.874C23.4299 31.2748 21.8638 30 20 30C18.1362 30 16.5701 31.2748 16.126 33H14.874C14.4299 31.2748 12.8638 30 11 30C9.13616 30 7.57006 31.2748 7.12602 33H6ZM9 34C9 35.1046 9.89543 36 11 36C12.1046 36 13 35.1046 13 34C13 32.8954 12.1046 32 11 32C9.89543 32 9 32.8954 9 34ZM20 36C21.1046 36 22 35.1046 22 34C22 32.8954 21.1046 32 20 32C18.8954 32 18 32.8954 18 34C18 35.1046 18.8954 36 20 36ZM39 34C39 35.1046 38.1046 36 37 36C35.8954 36 35 35.1046 35 34C35 32.8954 35.8954 32 37 32C38.1046 32 39 32.8954 39 34ZM19 15V18H22V20H19V23H17V20H14V18H17V15H19Z" fill="#333333"/>
</svg>
